src/images/icon-adv-hands.svg

<svg width="93" height="61" viewBox="0 0 93 61" fill="none" xmlns="http://www.w3.org/2000/svg">
<path d="M93 15.7444C92.9978 14.3393 92.5826 12.9144 91.6644 11.7398L84.2956 2.35678C83.0614 0.797161 81.1834 0.00307296 79.3067 0C78.1898 0 77.0525 0.284881 76.0477 0.908511L68.8627 5.35707C68.1071 5.83663 66.8116 6.1658 65.5603 6.1573C64.5881 6.16146 63.6487 5.96786 63.0284 5.66292L55.9924 2.27128C54.8575 1.72754 53.5923 1.50466 52.3201 1.5025C50.493 1.51099 48.6426 1.95784 47.1557 2.9833L46.3347 3.5565C45.6784 3.23058 44.6756 2.73403 43.5396 2.1715C42.1773 1.50683 40.5754 1.23876 38.9574 1.23352C37.4957 1.23768 36.0344 1.46182 34.7513 2.00122L29.9589 4.03624C29.1789 4.37282 27.9383 4.59262 26.7061 4.5872C25.4738 4.59244 24.2354 4.37264 23.4554 4.03624L18.6587 2.00013C17.7837 1.62885 16.8484 1.47014 15.9215 1.46905C14.8542 1.47014 13.7932 1.67946 12.8071 2.07696C11.8223 2.47662 10.9081 3.06663 10.1801 3.87626L1.44677 13.6096C0.478811 14.6853 -0.00199185 16.0399 6.20157e-06 17.3734C-0.00199185 18.9636 0.681703 20.5588 2.00041 21.6768L10.147 28.5935L6.28241 32.6055C5.21709 33.712 4.6867 35.1465 4.6867 36.5649C4.6847 38.0741 5.28702 39.5979 6.48003 40.7199L7.264 41.4612C8.00273 42.1586 8.89041 42.6022 9.81932 42.8388C9.35341 43.6917 9.09875 44.6267 9.10075 45.5636C9.09875 47.0739 9.70107 48.5966 10.8919 49.7199L10.8899 49.7188L11.6762 50.4634C12.7955 51.5192 14.2464 52.045 15.676 52.0441C16.4443 52.0452 17.2135 51.8916 17.9365 51.5908C18.1902 52.6152 18.7143 53.5889 19.5385 54.3671L20.3249 55.1117C21.4441 56.1675 22.8927 56.6933 24.3246 56.6924C25.4439 56.6935 26.5682 56.3652 27.5362 55.7281C27.8194 56.6346 28.3045 57.4937 29.0431 58.192L29.8294 58.9366C30.9463 59.9924 32.3972 60.5183 33.8271 60.5174C35.3498 60.5184 36.8876 59.9232 38.0234 58.7432L41.4389 55.1937L46.0793 59.4677C47.1901 60.493 48.6157 61.0031 50.0231 61C51.5692 61.0032 53.129 60.3868 54.2671 59.1743L55.0079 58.3845C55.6472 57.7011 56.0646 56.8922 56.3068 56.0478L58.1043 57.6989C59.217 58.72 60.6407 59.228 62.0461 59.2269C63.5942 59.228 65.1583 58.6116 66.2976 57.3981L67.0341 56.6093C67.8847 55.7049 68.3635 54.5847 68.5114 53.4407C68.9858 53.5616 69.4666 53.6437 69.9516 53.6437C71.4997 53.6437 73.0595 53.0284 74.1998 51.816L74.9386 51.0272C75.971 49.926 76.4847 48.5137 76.4825 47.1213C76.4825 46.689 76.4202 46.259 76.3239 45.834C77.6079 45.6647 78.8529 45.0947 79.7996 44.083L80.5404 43.2933C81.5728 42.1921 82.0843 40.7798 82.0843 39.3863C82.0863 37.853 81.4651 36.3059 80.2392 35.1787L78.8538 33.9052L91.3576 20.1474C92.4801 18.9088 92.998 17.3145 93 15.7444ZM11.2643 39.9114C10.6018 39.9094 9.95391 39.6737 9.44768 39.1963L8.66245 38.455C8.11916 37.9438 7.85088 37.2636 7.8487 36.5651C7.85088 35.91 8.08646 35.2705 8.57163 34.7667L16.4868 26.5469C17.0025 26.0115 17.6905 25.7434 18.3964 25.7425C19.0568 25.7436 19.7026 25.9802 20.213 26.4587L20.9949 27.2011C20.9949 27.2011 21.8045 28.3925 21.8065 29.0919C21.8045 29.6155 21.6459 30.1256 21.3384 30.5674C21.3121 30.5936 12.7955 39.4266 12.7955 39.4266C12.3432 39.7451 11.8085 39.909 11.2643 39.9114ZM17.5857 48.1102C17.0711 48.6435 16.3842 48.9104 15.6783 48.9126C15.0159 48.9115 14.37 48.6749 13.8617 48.1975L13.0754 47.4539L13.0734 47.4528C12.5345 46.9437 12.2638 46.2614 12.2638 45.5629C12.2638 44.9078 12.5016 44.2683 12.9844 43.7645C12.9844 43.7645 23.5352 32.8347 23.624 32.7293C24.1282 32.2467 24.778 31.9974 25.4489 31.9963C26.1114 31.9974 26.7573 32.233 27.2655 32.7114L28.0519 33.456C28.5928 33.965 28.8614 34.6465 28.8634 35.3459C28.8612 36.0009 28.6237 36.6414 28.1405 37.1452L17.5857 48.1102ZM26.2331 52.7572C25.7196 53.2918 25.0328 53.5591 24.3268 53.5611C23.6643 53.56 23.0184 53.3234 22.5102 52.8449L21.7217 52.1013C21.1808 51.5911 20.9101 50.9098 20.9101 50.2114C20.9101 49.6268 21.1099 49.0597 21.4923 48.5876L28.84 40.9556C29.3357 40.5108 29.9569 40.2763 30.6006 40.2763C31.2631 40.2774 31.909 40.513 32.4172 40.9914L33.2057 41.736C33.7447 42.245 34.0153 42.9265 34.0173 43.6248C34.0151 44.2811 33.7754 44.9216 33.2944 45.4241L26.2331 52.7572ZM40.1943 51.9518L35.7358 56.5825C35.2221 57.1167 34.5342 57.384 33.8284 57.386C33.1659 57.3849 32.52 57.1483 32.0118 56.6698L31.2255 55.9262C30.6866 55.4172 30.4159 54.7348 30.4139 54.0363C30.4159 53.38 30.6537 52.7395 31.1368 52.2379L35.5934 47.6073C36.1091 47.0732 36.7971 46.8049 37.503 46.8038C38.1634 46.8049 38.8113 47.0405 39.3196 47.52L40.1081 48.2637C40.647 48.7727 40.9155 49.4542 40.9176 50.1525C40.9151 50.8086 40.6773 51.4491 40.1943 51.9518ZM78.927 39.3904C78.9261 40.0336 78.6945 40.6635 78.2253 41.1641L77.4866 41.9529C76.9709 42.5019 76.2713 42.7795 75.5549 42.7806C74.905 42.7795 74.2687 42.5523 73.7637 42.0878L61.315 30.6309L59.1623 32.9246L72.4871 45.209C73.0421 45.7202 73.3209 46.4143 73.3251 47.1231C73.3209 47.7687 73.0915 48.3976 72.6234 48.8983L71.8868 49.6872C71.3711 50.2361 70.6715 50.5127 69.9551 50.5149C69.3052 50.5129 68.6669 50.2846 68.1659 49.8229L55.7139 38.3662L53.5635 40.6599L64.6141 50.8296C65.1467 51.3375 65.4195 52.0138 65.4195 52.7077C65.4195 53.3514 65.1901 53.9812 64.722 54.4808L63.9833 55.2696C63.4696 55.8186 62.7679 56.0963 62.0495 56.0983C61.3974 56.0963 60.7613 55.868 60.2584 55.4063L49.2299 45.2735H49.2279L49.2259 45.2715L47.0796 47.5694L47.0818 47.5714L47.123 47.6102L52.6467 52.6835C53.1361 53.184 53.3896 53.8255 53.3916 54.4891C53.3896 55.1296 53.1622 55.7563 52.6941 56.2561L51.9554 57.0458C51.4397 57.5948 50.7422 57.8703 50.0278 57.8724C49.3779 57.8705 48.7416 57.6432 48.2387 57.1796L43.4294 52.7478C43.8479 51.9308 44.0815 51.0442 44.0815 50.1544C44.0835 48.6453 43.4811 47.1236 42.2903 45.9994L41.5018 45.2549C40.3849 44.2 38.9359 43.6732 37.5062 43.6752C37.3953 43.6752 37.2834 43.7005 37.1746 43.7068C37.1746 43.6806 37.1807 43.6532 37.1807 43.6269C37.1827 42.1178 35.3896 39.4698 35.3896 39.4698L34.6033 38.7274C33.7674 37.9385 32.7474 37.4465 31.6867 37.2487C31.9054 36.6325 32.0291 35.991 32.0291 35.3484C32.0291 33.8392 31.4287 32.3163 30.2379 31.1934L29.4516 30.4488C28.3323 29.393 26.8837 28.8661 25.4538 28.8672C25.2869 28.8672 25.1222 28.9008 24.9562 28.9156C24.9107 27.4664 24.3242 26.0184 23.183 24.9394V24.9383L22.3988 24.197C21.2796 23.1401 19.831 22.6132 18.4011 22.6142C16.8761 22.6132 15.3406 23.2084 14.2048 24.3884L12.3365 26.3287L4.05986 19.3036C3.46498 18.7967 3.168 18.0963 3.16582 17.377C3.16782 16.7744 3.37398 16.1844 3.81355 15.6945L12.5466 5.96135C12.8932 5.57434 13.4058 5.22421 14.0061 4.98108C14.6065 4.73814 15.288 4.60473 15.9252 4.60564C16.4801 4.60564 17.0008 4.7056 17.4173 4.88437L22.2119 6.9203C23.5635 7.48717 25.1327 7.71963 26.7097 7.72469C28.2885 7.71945 29.8557 7.48699 31.2075 6.9203L35.9999 4.88528C36.7386 4.56461 37.8534 4.36577 38.9619 4.36993C40.1878 4.36251 41.4157 4.61504 42.1279 4.97674C42.5802 5.20071 43.0092 5.41328 43.4076 5.61194L38.52 9.03106C36.9495 10.1301 36.1031 11.8779 36.1053 13.6416C36.1033 14.8089 36.4751 15.9973 37.2318 17.0057L37.2298 17.0036L37.8753 17.8669C39.1012 19.4887 41.0128 20.3225 42.9235 20.3267C44.0024 20.3267 45.1016 20.0554 46.0811 19.4706L49.0041 17.7237C49.6002 17.3609 50.5005 17.1317 51.4314 17.1359C52.5252 17.1296 53.6274 17.4515 54.29 17.9361L62.3765 23.7055C64.1762 24.9886 67.1075 27.3685 68.7319 28.8661L78.0917 37.4781C78.6459 37.9895 78.9249 38.6806 78.927 39.3904ZM89.0108 18.0538L76.5419 31.7747L70.8807 26.567C69.1075 24.9379 66.1835 22.5624 64.2221 21.1604L56.1379 15.391C54.7672 14.4246 53.089 14.0069 51.4299 14.0008C50.018 14.0049 48.5956 14.3111 47.3677 15.0387L44.4469 16.7856C43.9988 17.0536 43.4706 17.1905 42.9219 17.1916C41.941 17.1948 40.9594 16.7393 40.4121 15.9978L39.7686 15.1356L39.7664 15.1334C39.424 14.6739 39.2645 14.1586 39.2622 13.6369C39.2663 12.848 39.632 12.0825 40.3402 11.585L48.9825 5.54217C49.7298 5.00386 51.0592 4.62625 52.3219 4.63565C53.1991 4.63149 54.037 4.80701 54.6108 5.089L61.6466 8.48064C62.8462 9.05383 64.2 9.28828 65.5619 9.29154C67.3118 9.28304 69.0808 8.90452 70.5383 8.01373L77.7255 3.56427C78.1841 3.27939 78.7347 3.13207 79.3087 3.13207C80.2788 3.13008 81.2509 3.56752 81.8015 4.28153L89.1703 13.6645C89.5951 14.2019 89.8413 14.9601 89.8413 15.7458C89.8425 16.6245 89.5307 17.4891 89.0108 18.0538Z" fill="#E7E7E7"/>
</svg>

<svg xmlns="http://www.w3.org/2000/svg" width="93" height="61" fill="none"><path fill="#E7E7E7" d="M93 15.74c0-1.4-.42-2.83-1.34-4L84.3 2.36C83.06.8 81.18 0 79.3 0c-1.1 0-2.25.28-3.25.9l-7.2 4.46c-.74.48-2.04.8-3.3.8-.96 0-1.9-.2-2.52-.5L56 2.26c-1.14-.53-2.4-.76-3.68-.76-1.83 0-3.68.46-5.16 1.48l-.83.58c-.65-.33-1.65-.83-2.8-1.4-1.35-.65-2.95-.92-4.57-.93-1.46 0-2.93.23-4.2.77l-4.8 2.04c-.78.33-2.02.55-3.25.55s-2.46-.23-3.24-.56L18.66 2c-.88-.37-1.8-.53-2.74-.53-1.07 0-2.13.2-3.1.6-1 .4-1.9 1-2.64 1.8l-8.73 9.74C.48 14.7 0 16.05 0 17.38c0 1.6.68 3.2 2 4.3l8.15 6.92-3.87 4c-1.06 1.1-1.6 2.55-1.6 3.96 0 1.5.6 3.04 1.8 4.16l.78.74c.74.7 1.63 1.14 2.56 1.38-.47.85-.72 1.8-.72 2.72 0 1.5.6 3.04 1.8 4.16l.78.74c1.12 1.06 2.57 1.6 4 1.58.76 0 1.53-.15 2.26-.45.25 1.02.77 2 1.6 2.77l.78.74c1.12 1.07 2.57 1.6 4 1.6 1.12 0 2.25-.33 3.22-.97.28.9.76 1.76 1.5 2.46l.8.74c1.1 1.05 2.56 1.58 4 1.58 1.5 0 3.05-.6 4.18-1.78l3.42-3.55 4.64 4.27c1.1 1.02 2.54 1.53 3.94 1.53 1.55 0 3.1-.6 4.25-1.83l.74-.8c.65-.67 1.06-1.48 1.3-2.32l1.8 1.65c1.12 1.02 2.54 1.53 3.95 1.53 1.54 0 3.1-.62 4.25-1.83l.73-.8c.85-.9 1.33-2.02 1.48-3.16.5.12.97.2 1.45.2 1.55 0 3.1-.6 4.25-1.82l.74-.8c1.03-1.1 1.54-2.5 1.54-3.9 0-.43-.06-.86-.16-1.3 1.3-.16 2.53-.73 3.48-1.74l.74-.8c1.03-1.1 1.54-2.5 1.54-3.9 0-1.53-.6-3.07-1.84-4.2l-1.4-1.27 12.52-13.75C92.48 18.9 93 17.3 93 15.75zM11.26 39.9c-.66 0-1.3-.23-1.8-.7l-.8-.75c-.54-.5-.8-1.2-.8-1.88 0-.66.23-1.3.7-1.8l7.93-8.22c.5-.54 1.2-.8 1.9-.8.66 0 1.3.23 1.8.7l.8.75s.8 1.2.8 1.9c0 .52-.15 1.03-.46 1.47-.03.02-8.54 8.86-8.54 8.86-.46.32-1 .48-1.54.48zm6.33 8.2c-.53.54-1.22.8-1.92.8-.66 0-1.3-.23-1.82-.7l-.78-.75c-.55-.5-.82-1.2-.82-1.9 0-.64.24-1.28.72-1.8 0 0 10.56-10.92 10.64-11.02.5-.48 1.16-.73 1.83-.73.66 0 1.3.23 1.82.7l.78.76c.54.5.8 1.2.8 1.9 0 .64-.23 1.28-.7 1.8L17.58 48.1zm8.63 4.66c-.5.53-1.2.8-1.9.8-.67 0-1.3-.24-1.82-.72l-.78-.74c-.54-.5-.8-1.2-.8-1.9 0-.57.2-1.14.57-1.6l7.34-7.64c.5-.45 1.12-.68 1.76-.68.66 0 1.3.23 1.82.7l.8.76c.52.5.8 1.2.8 1.88 0 .66-.24 1.3-.73 1.8l-7.07 7.34zm13.96-.8l-4.46 4.62c-.52.54-1.2.8-1.9.8-.67 0-1.32-.23-1.83-.7l-.77-.75c-.54-.5-.8-1.2-.82-1.9.02-.65.25-1.3.74-1.8l4.45-4.62c.5-.53 1.2-.8 1.9-.8.66 0 1.3.24 1.82.72l.8.74c.53.5.8 1.2.8 1.9 0 .65-.24 1.3-.73 1.8zm38.73-12.57c0 .63-.24 1.26-.7 1.76l-.74.8c-.53.54-1.23.82-1.95.82-.64 0-1.28-.23-1.8-.7L61.32 30.64l-2.14 2.3L72.5 45.2c.54.52.82 1.2.83 1.92 0 .65-.24 1.28-.7 1.78l-.74.8c-.53.54-1.23.8-1.94.8-.65 0-1.3-.22-1.8-.68L55.72 38.37l-2.14 2.3L64.6 50.82c.55.5.82 1.18.82 1.88 0 .65-.23 1.28-.7 1.78l-.74.8c-.5.54-1.2.82-1.93.82-.65 0-1.3-.23-1.8-.7L49.24 45.28l-2.15 2.3.04.04 5.53 5.08c.5.5.74 1.15.74 1.8 0 .65-.24 1.28-.7 1.78l-.74.8c-.52.53-1.22.8-1.93.8-.65 0-1.3-.22-1.8-.68l-4.8-4.43c.42-.82.65-1.7.65-2.6 0-1.5-.6-3.03-1.8-4.15l-.78-.75c-1.12-1.05-2.56-1.58-4-1.57-.1 0-.22.02-.33.03 0-.02 0-.05 0-.07 0-1.5-1.78-4.16-1.78-4.16l-.8-.74c-.83-.8-1.85-1.28-2.9-1.48.2-.62.33-1.26.33-1.9 0-1.5-.6-3.03-1.8-4.16l-.78-.75c-1.12-1.06-2.57-1.58-4-1.58-.16 0-.33.03-.5.05-.04-1.45-.63-2.9-1.77-3.98l-.78-.74c-1.12-1.06-2.57-1.6-4-1.6-1.52 0-3.06.6-4.2 1.8l-1.86 1.93-8.28-7.03c-.6-.5-.9-1.2-.9-1.92 0-.6.2-1.2.65-1.7l8.75-9.72c.34-.4.86-.74 1.46-.98s1.3-.38 1.93-.37c.55 0 1.07.1 1.5.28l4.78 2.04c1.36.57 2.93.8 4.5.8 1.6 0 3.16-.23 4.5-.8L36 4.9c.74-.34 1.85-.53 2.96-.53 1.23 0 2.46.25 3.17.6.45.23.88.44 1.28.64l-4.88 3.43c-1.57 1.1-2.42 2.85-2.4 4.6-.02 1.18.36 2.37 1.1 3.38l.66.87c1.22 1.62 3.13 2.45 5.04 2.46 1.08 0 2.18-.27 3.16-.86L49 17.72c.6-.36 1.5-.6 2.43-.58 1.1 0 2.2.3 2.86.8l8.08 5.77c1.8 1.3 4.73 3.67 6.35 5.17l9.36 8.6c.55.52.82 1.2.83 1.92zM89 18.04L76.55 31.77l-5.66-5.2c-1.77-1.63-4.7-4-6.66-5.4l-8.08-5.78c-1.37-.98-3.05-1.4-4.7-1.4-1.42 0-2.84.3-4.07 1.04l-2.92 1.75c-.45.25-.98.4-1.53.4-.98 0-1.96-.46-2.5-1.2l-.65-.86c-.35-.47-.5-.98-.5-1.5 0-.8.36-1.56 1.07-2.05l8.64-6.06c.75-.54 2.08-.9 3.34-.9.88 0 1.72.17 2.3.45l7.03 3.38c1.2.57 2.55.8 3.9.8 1.76 0 3.53-.38 5-1.27l7.18-4.44c.45-.28 1-.43 1.58-.43.98 0 1.95.44 2.5 1.15l7.37 9.38c.43.54.67 1.3.67 2.1 0 .86-.3 1.73-.83 2.3z"/></svg>
